X:1
T:The Tailor's Breeches
M:4/4
L:1/8
K:C
 G2| cc ed c2 GE| FF GG C2 z C|C-D EFG-A Bc| d2 dd G2| d2| e2 e3/2 e/2 c2 d3/2 e/2|\
 f3/2 f/2 ff d2 GG| ce cc A3/2 F/2 FF| GG AB c2| z d| e3 c d3 B| c3/2 d/2 cA G2 z G|\
 ce cc A3/2 F/2 FF| GG AB c2||

